assets/icons/reply-all.svg

<?xml version="1.0" encoding="UTF-8" standalone="no"?>
<svg viewBox="0 0 24 24" height="24" width="24" version="1.1" id="svg8" sodipodi:docname="reply-all.svg" inkscape:version="1.1 (ce6663b3b7, 2021-05-25)"
   xmlns:inkscape="http://www.inkscape.org/namespaces/inkscape"
   xmlns:sodipodi="http://sodipodi.sourceforge.net/DTD/sodipodi-0.dtd"
   xmlns="http://www.w3.org/2000/svg"
   xmlns:svg="http://www.w3.org/2000/svg">
   <defs id="defs12" />
   <sodipodi:namedview id="namedview10" pagecolor="#ffffff" bordercolor="#666666" borderopacity="1.0" inkscape:pageshadow="2" inkscape:pageopacity="0.0" inkscape:pagecheckerboard="0" showgrid="true" inkscape:zoom="28" inkscape:cx="12.303571" inkscape:cy="9.7678571" inkscape:window-width="1920" inkscape:window-height="1016" inkscape:window-x="0" inkscape:window-y="27" inkscape:window-maximized="1" inkscape:current-layer="svg8" inkscape:snap-page="true">
      <inkscape:grid type="xygrid" id="grid821" />
   </sodipodi:namedview>
   <path id="path4" style="color:#000000;fill:#808080;stroke-width:0.8;marker:none" d="M 16 6 L 16 11.5 C 16 12.888887 15.577027 13.688005 14.833984 14.21875 C 14.090942 14.749495 12.944443 15 11.5 15 L 8 15 L 8 12.349609 L 7.9980469 12.349609 A 53.855 53.855 0 0 0 5.09375 13.824219 C 4.1175 14.362969 3.1770313 14.913359 2.2695312 15.474609 C 3.1770312 16.047109 4.1175 16.603828 5.09375 17.142578 C 6.07875 17.678828 7.0480469 18.164609 7.9980469 18.599609 L 8 16 L 11.5 16 L 16.5 16 C 18.055554 16 19.40906 15.750504 20.416016 15.03125 C 21.422971 14.311996 22 13.11111 22 11.5 L 22 6 L 21 6 L 21 11.5 C 21 12.888887 20.577027 13.688005 19.833984 14.21875 C 19.090942 14.749495 17.944443 15 16.5 15 L 15.457031 15 C 16.43811 14.277546 17 13.088658 17 11.5 L 17 6 L 16 6 z " />
</svg>

<svg height="24" width="24" xmlns="http://www.w3.org/2000/svg"><path style="color:#000;fill:gray;stroke-width:.8;marker:none" d="M16 6v5.5c0 1.389-.423 2.188-1.166 2.719-.743.53-1.89.781-3.334.781H8v-2.65h-.002a53.855 53.855 0 0 0-2.904 1.474 65.913 65.913 0 0 0-2.824 1.65 56.02 56.02 0 0 0 2.824 1.669A47.045 47.045 0 0 0 7.998 18.6L8 16h8.5c1.556 0 2.91-.25 3.916-.969C21.423 14.312 22 13.111 22 11.5V6h-1v5.5c0 1.389-.423 2.188-1.166 2.719-.743.53-1.89.781-3.334.781h-1.043c.981-.722 1.543-1.911 1.543-3.5V6h-1z"/></svg>
